X:874
T:Ornette's Trip To Belfast
R:reel
C:Donald Shaw
Z:id:hn-reel-874
M:C|
L:1/8
K:D
~B3c dcBc | ~A3F BAFE | D2 (3FED FA~A2 | ABde fedc |
~B3c dcBc | ~A3F BAFE | DA (3FED FA~A2 |1 ABde d2dc :|2 ABde d3e ||
|: f2af fbaf | afef dB~B2 | f2af fbaf | afef d3e |
fgfd ~B3d | ABAG FGAF | DE (3FED FAAF |1 ABde d2de :|2 ABde d3c ||

